;FLAVOR:Marlin
;TIME:2745
;Filament used: 1.61977m
;Layer height: 0.2
;MINX:106.304
;MINY:102.848
;MINZ:0.32
;MAXX:132.174
;MAXY:132.168
;MAXZ:28.12
;TARGET_MACHINE.NAME:Creality Ender-3
;Generated with Cura_SteamEngine 5.10.0
M140 S65
M105
M190 S65
M104 S205
M105
M109 S205
; Ender 3 Custom Start G-code
G92 E0 ; Reset Extruder
G28 ; Home all axes
G1 Z2.0 F3000 ; Move Z Axis up little to prevent scratching of Heat Bed
G1 X0.1 Y20 Z0.3 F5000.0 ; Move to start position
G1 X0.1 Y200.0 Z0.3 F1500.0 E15 ; Draw the first line
G1 X0.4 Y200.0 Z0.3 F5000.0 ; Move to side a little
G1 X0.4 Y20 Z0.3 F1500.0 E30 ; Draw the second line
G92 E0 ; Reset Extruder
G1 Z2.0 F3000 ; Move Z Axis up little to prevent scratching of Heat Bed
G1 X5 Y20 Z0.3 F5000.0 ; Move over to prevent blob squish
M82 ;absolute extrusion mode
G92 E0
G92 E0
G1 F1800 E-5
;LAYER_COUNT:138
;LAYER:0
M107
G1 F300 Z0.72
G0 F6000 X110.278 Y104.135 Z0.72
;TYPE:SKIRT
G1 F300 Z0.32
G1 F1800 E0
G1 F1200 X111.138 Y103.341 E0.06715
G1 X111.983 Y102.999 E0.11944
G1 X112.589 Y102.848 E0.15527
G1 X119.562 Y102.864 E0.55529
G1 X120.27 Y102.965 E0.59632
G1 X120.889 Y103.279 E0.63614
G1 X121.585 Y102.999 E0.67917
G1 X122.193 Y102.848 E0.71511
G1 X129.257 Y102.873 E1.12036
G1 X129.891 Y102.973 E1.15718
G1 X130.885 Y103.47 E1.22093
G1 X131.682 Y104.335 E1.2884
G1 X132.023 Y105.179 E1.34063
G1 X132.174 Y105.787 E1.37656
G1 X132.149 Y113.651 E1.8277
G1 X132.061 Y114.213 E1.86033
G1 X131.925 Y114.529 E1.88007
G1 X132.003 Y114.717 E1.89175
G1 X132.174 Y115.385 E1.9313
G1 X132.149 Y123.251 E2.38255
G1 X132.05 Y123.882 E2.4192
G1 X131.55 Y124.881 E2.48328
G1 X130.69 Y125.675 E2.55043
G1 X129.845 Y126.017 E2.60273
G1 X129.24 Y126.168 E2.6385
G1 X126.169 Y126.168 E2.81467
G1 X126.149 Y129.251 E2.99154
G1 X126.05 Y129.882 E3.02818
G1 X125.55 Y130.881 E3.09227
G1 X124.693 Y131.673 E3.15921
G1 X123.971 Y131.975 E3.20411
G1 X123.243 Y132.168 E3.24731
G1 X114.878 Y132.152 E3.72719
G1 X114.168 Y132.051 E3.76833
G1 X113.147 Y131.54 E3.83383
G1 X112.362 Y130.69 E3.9002
G1 X112.017 Y129.839 E3.95288
G1 X111.866 Y129.234 E3.98865
G1 X111.87 Y126.007 E4.17378
G1 X110.939 Y125.545 E4.2334
G1 X110.147 Y124.685 E4.30047
G1 X109.805 Y123.837 E4.35292
G1 X109.654 Y123.229 E4.38886
G1 X109.679 Y115.365 E4.84
G1 X109.768 Y114.8 E4.87281
G1 X109.902 Y114.484 E4.8925
G1 X109.805 Y114.237 E4.90773
G1 X109.654 Y113.629 E4.94366
G1 X109.679 Y105.765 E5.3948
G1 X109.778 Y105.134 E5.43144
G1 X110.278 Y104.135 E5.49553
G0 F6000 X110.635 Y104.405
G1 F1200 X111.378 Y103.718 E5.55358
G1 X112.09 Y103.426 E5.59773
G1 X112.643 Y103.288 E5.63043
G1 X119.5 Y103.3 E6.02379
G1 X120.138 Y103.391 E6.06076
G1 X120.908 Y103.782 E6.1103
G1 X121.045 Y103.691 E6.11974
G1 X121.691 Y103.426 E6.1598
G1 X122.246 Y103.288 E6.1926
G1 X129.189 Y103.308 E6.59091
G1 X129.754 Y103.397 E6.62372
G1 X130.618 Y103.829 E6.67913
G1 X131.304 Y104.573 E6.73719
G1 X131.596 Y105.285 E6.78133
G1 X131.734 Y105.84 E6.81414
G1 X131.714 Y113.583 E7.25834
G1 X131.626 Y114.145 E7.29097
G1 X131.442 Y114.512 E7.31452
G1 X131.596 Y114.885 E7.33767
G1 X131.734 Y115.44 E7.37048
G1 X131.714 Y123.183 E7.81468
G1 X131.625 Y123.748 E7.84749
G1 X131.193 Y124.611 E7.90285
G1 X130.45 Y125.298 E7.9609
G1 X129.738 Y125.59 E8.00505
G1 X129.185 Y125.728 E8.03775
G1 X125.731 Y125.728 E8.23589
G1 X125.714 Y129.183 E8.4341
G1 X125.625 Y129.748 E8.46691
G1 X125.193 Y130.611 E8.52228
G1 X124.451 Y131.297 E8.58025
G1 X123.801 Y131.569 E8.62067
G1 X123.186 Y131.728 E8.65711
G1 X114.94 Y131.716 E9.13016
G1 X114.301 Y131.625 E9.16719
G1 X113.415 Y131.182 E9.22401
G1 X112.739 Y130.45 E9.28117
G1 X112.444 Y129.732 E9.3257
G1 X112.306 Y129.179 E9.3584
G1 X112.31 Y125.655 E9.56056
G1 X112.017 Y125.589 E9.57779
G1 X111.208 Y125.187 E9.62962
G1 X110.525 Y124.445 E9.68747
G1 X110.232 Y123.731 E9.73174
G1 X110.094 Y123.176 E9.76455
G1 X110.114 Y115.433 E10.20875
G1 X110.203 Y114.868 E10.24156
G1 X110.386 Y114.502 E10.26503
G1 X110.232 Y114.131 E10.28808
G1 X110.094 Y113.576 E10.32089
G1 X110.114 Y105.833 E10.76508
G1 X110.203 Y105.268 E10.79789
G1 X110.635 Y104.405 E10.85326
G0 F6000 X110.994 Y104.671
G1 F1200 X111.617 Y104.096 E10.90189
G1 X112.197 Y103.853 E10.93797
G1 X112.698 Y103.728 E10.96759
G1 X119.438 Y103.736 E11.35424
G1 X120.006 Y103.817 E11.38716
G1 X120.685 Y104.157 E11.43072
G1 X120.919 Y104.37 E11.44887
G1 X121.215 Y104.097 E11.47197
G1 X121.797 Y103.853 E11.50818
G1 X122.299 Y103.728 E11.53785
G1 X129.121 Y103.743 E11.92921
G1 X129.617 Y103.821 E11.95802
G1 X130.351 Y104.188 E12.00509
G1 X130.926 Y104.811 E12.05373
G1 X131.169 Y105.391 E12.08981
G1 X131.294 Y105.893 E12.11948
G1 X131.279 Y113.515 E12.55674
G1 X131.201 Y114.011 E12.58554
G1 X130.957 Y114.498 E12.61679
G1 X131.169 Y114.991 E12.64757
G1 X131.294 Y115.493 E12.67725
G1 X131.279 Y123.115 E13.1145
G1 X131.201 Y123.611 E13.14331
G1 X130.834 Y124.345 E13.19039
G1 X130.211 Y124.92 E13.23902
G1 X129.631 Y125.163 E13.2751
G1 X129.13 Y125.288 E13.30472
G1 X125.293 Y125.288 E13.52484
G1 X125.279 Y129.115 E13.74438
G1 X125.201 Y129.611 E13.77318
G1 X124.834 Y130.345 E13.82026
G1 X124.211 Y130.92 E13.8689
G1 X123.631 Y131.163 E13.90497
G1 X123.13 Y131.288 E13.93459
G1 X115.002 Y131.28 E14.40087
G1 X114.432 Y131.199 E14.4339
G1 X113.685 Y130.825 E14.48183
G1 X113.116 Y130.209 E14.52993
G1 X112.871 Y129.625 E14.56626
G1 X112.746 Y129.124 E14.59589
G1 X112.75 Y125.276 E14.81664
G1 X112.213 Y125.195 E14.84779
G1 X111.477 Y124.829 E14.89494
G1 X110.902 Y124.205 E14.94362
G1 X110.659 Y123.625 E14.9797
G1 X110.534 Y123.123 E15.00937
G1 X110.549 Y115.501 E15.44663
G1 X110.627 Y115.005 E15.47543
G1 X110.871 Y114.517 E15.50673
G1 X110.659 Y114.025 E15.53746
G1 X110.534 Y113.523 E15.56714
G1 X110.549 Y105.901 E16.00439
G1 X110.627 Y105.405 E16.0332
G1 X110.994 Y104.671 E16.08028
G0 F6000 X111.352 Y104.938
G1 F1200 X111.857 Y104.472 E16.1197
G1 X112.303 Y104.28 E16.14755
G1 X112.752 Y104.168 E16.1741
G1 X119.376 Y104.172 E16.5541
G1 X119.875 Y104.243 E16.58301
G1 X120.488 Y104.55 E16.62234
G1 X120.913 Y105.017 E16.65857
G1 X121.013 Y104.882 E16.6682
G1 X121.457 Y104.472 E16.70287
G1 X121.903 Y104.28 E16.73073
G1 X122.352 Y104.168 E16.75728
G1 X129.052 Y104.178 E17.14164
G1 X129.482 Y104.246 E17.16661
G1 X130.084 Y104.546 E17.2052
G1 X130.55 Y105.051 E17.24462
G1 X130.742 Y105.497 E17.27247
G1 X130.854 Y105.946 E17.29902
G1 X130.844 Y113.446 E17.72927
G1 X130.776 Y113.876 E17.75425
G1 X130.511 Y114.407 E17.78829
G1 X130.427 Y114.518 E17.79628
G1 X130.576 Y114.712 E17.81031
G1 X130.742 Y115.097 E17.83436
G1 X130.854 Y115.546 E17.86091
G1 X130.844 Y123.046 E18.29116
G1 X130.776 Y123.476 E18.31614
G1 X130.476 Y124.078 E18.35472
G1 X129.971 Y124.544 E18.39414
G1 X129.525 Y124.736 E18.422
G1 X129.076 Y124.848 E18.44855
G1 X124.854 Y124.848 E18.69075
G1 X124.844 Y129.046 E18.93158
G1 X124.776 Y129.476 E18.95655
G1 X124.476 Y130.078 E18.99514
G1 X123.971 Y130.544 E19.03456
G1 X123.525 Y130.736 E19.06241
G1 X123.076 Y130.848 E19.08896
G1 X115.064 Y130.844 E19.54859
G1 X114.565 Y130.773 E19.5775
G1 X113.953 Y130.467 E19.61675
G1 X113.491 Y129.967 E19.65581
G1 X113.298 Y129.519 E19.68379
G1 X113.186 Y129.07 E19.71034
G1 X113.19 Y124.845 E19.95271
G1 X112.776 Y124.838 E19.97647
G1 X112.346 Y124.77 E20.00144
G1 X111.744 Y124.47 E20.04003
G1 X111.278 Y123.965 E20.07945
G1 X111.086 Y123.519 E20.1073
G1 X110.974 Y123.07 E20.13385
G1 X110.984 Y115.57 E20.5641
G1 X111.052 Y115.14 E20.58908
G1 X111.317 Y114.609 E20.62312
G1 X111.401 Y114.498 E20.63111
G1 X111.252 Y114.304 E20.64514
G1 X111.086 Y113.919 E20.66919
G1 X110.974 Y113.47 E20.69574
G1 X110.984 Y105.97 E21.12599
G1 X111.052 Y105.54 E21.15097
G1 X111.352 Y104.938 E21.18955
G0 F6000 X111.711 Y105.205
G1 F1200 X112.099 Y104.847 E21.21984
G1 X112.409 Y104.707 E21.23935
G1 X112.806 Y104.608 E21.26282
G1 X119.314 Y104.608 E21.63617
G1 X119.744 Y104.669 E21.66108
G1 X120.217 Y104.906 E21.69143
G1 X120.575 Y105.293 E21.72168
G1 X120.715 Y105.603 E21.74119
G1 X120.814 Y106 E21.76466
G1 X120.809 Y113.377 E22.18786
G1 X120.751 Y113.741 E22.20901
G1 X120.517 Y114.211 E22.23912
G1 X120.208 Y114.496 E22.26324
G1 X120.575 Y114.893 E22.29426
G1 X120.715 Y115.203 E22.31377
G1 X120.814 Y115.6 E22.33724
G1 X120.814 Y118.208 E22.48685
G1 X121.014 Y118.208 E22.49833
G1 X121.019 Y115.639 E22.6457
G1 X121.077 Y115.275 E22.66685
G1 X121.311 Y114.805 E22.69697
G1 X121.62 Y114.52 E22.72108
G1 X121.253 Y114.123 E22.7521
G1 X121.113 Y113.813 E22.77161
G1 X121.014 Y113.416 E22.79508
G1 X121.019 Y106.039 E23.21828
G1 X121.077 Y105.675 E23.23943
G1 X121.311 Y105.205 E23.26955
G1 X121.699 Y104.847 E23.29983
G1 X122.009 Y104.707 E23.31934
G1 X122.406 Y104.608 E23.34282
G1 X128.983 Y104.613 E23.72012
G1 X129.347 Y104.671 E23.74126
G1 X129.817 Y104.905 E23.77138
G1 X130.175 Y105.293 E23.80167
G1 X130.315 Y105.603 E23.82118
G1 X130.414 Y106 E23.84466
G1 X130.409 Y113.377 E24.26785
G1 X130.351 Y113.741 E24.289
G1 X130.117 Y114.211 E24.31912
G1 X129.808 Y114.496 E24.34323
G1 X130.175 Y114.893 E24.37425
G1 X130.315 Y115.203 E24.39376
G1 X130.414 Y115.6 E24.41723
G1 X130.409 Y122.977 E24.84043
G1 X130.351 Y123.341 E24.86157
G1 X130.117 Y123.811 E24.89169
G1 X129.729 Y124.169 E24.92198
G1 X129.419 Y124.309 E24.94149
G1 X129.022 Y124.408 E24.96497
G1 X124.414 Y124.408 E25.22931
G1 X124.409 Y128.977 E25.49142
G1 X124.351 Y129.341 E25.51257
G1 X124.117 Y129.811 E25.54269
G1 X123.729 Y130.169 E25.57297
G1 X123.419 Y130.309 E25.59249
G1 X123.022 Y130.408 E25.61596
G1 X115.126 Y130.408 E26.06893
G1 X114.696 Y130.347 E26.09384
G1 X114.223 Y130.11 E26.12419
G1 X113.865 Y129.723 E26.15444
G1 X113.725 Y129.413 E26.17395
G1 X113.626 Y129.016 E26.19742
G1 X113.63 Y124.839 E26.43705
G1 X113.698 Y124.408 E26.46208
G1 X112.845 Y124.403 E26.51101
G1 X112.481 Y124.345 E26.53216
G1 X112.011 Y124.111 E26.56228
G1 X111.653 Y123.723 E26.59256
G1 X111.513 Y123.413 E26.61208
G1 X111.414 Y123.016 E26.63555
G1 X111.419 Y115.639 E27.05874
G1 X111.477 Y115.275 E27.07989
G1 X111.711 Y114.805 E27.11001
G1 X112.02 Y114.52 E27.13412
G1 X111.653 Y114.123 E27.16514
G1 X111.513 Y113.813 E27.18465
G1 X111.414 Y113.416 E27.20812
G1 X111.419 Y106.039 E27.63132
G1 X111.477 Y105.675 E27.65247
G1 X111.711 Y105.205 E27.68259
G0 F6000 X112.448 Y105.699
G1 F1200 X112.621 Y105.561 E27.69528
G1 X112.914 Y105.488 E27.7126
G1 X119.314 Y105.488 E28.07975
G1 X119.532 Y105.528 E28.09247
G1 X119.723 Y105.642 E28.10523
G1 X119.861 Y105.815 E28.11792
G1 X119.934 Y106.108 E28.13525
G1 X119.934 Y113.308 E28.54829
G1 X119.894 Y113.526 E28.561
G1 X119.78 Y113.717 E28.57376
G1 X119.607 Y113.855 E28.58646
G1 X119.314 Y113.928 E28.60378
G1 X112.914 Y113.928 E28.97093
G1 X112.696 Y113.888 E28.98365
G1 X112.505 Y113.774 E28.99641
G1 X112.367 Y113.601 E29.0091
G1 X112.294 Y113.308 E29.02642
G1 X112.294 Y106.108 E29.43947
G1 X112.334 Y105.89 E29.45218
G1 X112.448 Y105.699 E29.46494
G1 F1800 E24.46494
G1 F300 Z0.72
G0 F6000 X112.914 Y115.088 Z0.72
G1 F300 Z0.32
G1 F1800 E29.46494
G1 F1200 X112.621 Y115.161 E29.48226
G1 X112.448 Y115.299 E29.49496
G1 X112.334 Y115.49 E29.50772
G1 X112.294 Y115.708 E29.52043
G1 X112.294 Y122.908 E29.93348
G1 X112.367 Y123.201 E29.9508
G1 X112.505 Y123.374 E29.9635
G1 X112.696 Y123.488 E29.97626
G1 X112.914 Y123.528 E29.98897
G1 X118.294 Y123.528 E30.29761
G1 X118.294 Y124.288 E30.3412
G1 X115.125 Y124.288 E30.523
G1 X114.832 Y124.362 E30.54034
G1 X114.659 Y124.5 E30.55303
G1 X114.545 Y124.69 E30.56574
G1 X114.505 Y124.908 E30.57846
G1 X114.506 Y128.908 E30.80793
G1 X114.579 Y129.201 E30.82525
G1 X114.717 Y129.374 E30.83794
G1 X114.908 Y129.488 E30.8507
G1 X115.126 Y129.528 E30.86342
G1 X122.914 Y129.528 E31.31019
G1 X123.207 Y129.455 E31.32752
G1 X123.38 Y129.317 E31.34021
G1 X123.494 Y129.126 E31.35297
G1 X123.534 Y128.908 E31.36569
G1 X123.534 Y123.528 E31.67432
G1 X128.914 Y123.528 E31.98296
G1 X129.207 Y123.455 E32.00028
G1 X129.38 Y123.317 E32.01297
G1 X129.494 Y123.126 E32.02574
G1 X129.534 Y122.908 E32.03845
G1 X129.534 Y115.708 E32.45149
G1 X129.461 Y115.415 E32.46882
G1 X129.323 Y115.242 E32.48151
G1 X129.132 Y115.128 E32.49427
G1 X128.914 Y115.088 E32.50699
G1 X122.514 Y115.088 E32.87414
G1 X122.221 Y115.161 E32.89146
G1 X122.048 Y115.299 E32.90415
G1 X121.934 Y115.49 E32.91691
G1 X121.894 Y115.708 E32.92963
G1 X121.894 Y119.088 E33.12353
G1 X119.934 Y119.088 E33.23597
G1 X119.934 Y115.708 E33.42987
G1 X119.861 Y115.415 E33.44719
G1 X119.723 Y115.242 E33.45989
G1 X119.532 Y115.128 E33.47265
G1 X119.314 Y115.088 E33.48536
G1 X112.914 Y115.088 E33.85251
G0 F6000 X112.914 Y114.368
G1 F1200 X112.617 Y114.321 E33.86976
G1 X112.279 Y114.152 E33.89144
G1 X112.023 Y113.875 E33.91308
G1 X111.94 Y113.707 E33.92383
G1 X111.854 Y113.362 E33.94422
G1 X111.854 Y106.108 E34.36037
G1 X111.901 Y105.811 E34.37762
G1 X112.07 Y105.473 E34.39929
G1 X112.347 Y105.217 E34.42093
G1 X112.515 Y105.134 E34.43168
G1 X112.86 Y105.048 E34.45208
G1 X119.314 Y105.048 E34.82233
G1 X119.611 Y105.095 E34.83958
G1 X119.949 Y105.264 E34.86125
G1 X120.205 Y105.541 E34.88289
G1 X120.288 Y105.709 E34.89364
G1 X120.374 Y106.054 E34.91404
G1 X120.374 Y113.308 E35.33018
G1 X120.327 Y113.605 E35.34743
G1 X120.158 Y113.943 E35.36911
G1 X119.881 Y114.199 E35.39075
G1 X119.713 Y114.282 E35.4015
G1 X119.368 Y114.368 E35.42189
G1 X112.914 Y114.368 E35.79214
G1 F1800 E30.79214
G1 F300 Z0.72
G0 F6000 X121.894 Y113.308 Z0.72
G1 F300 Z0.32
G1 F1800 E35.79214
G1 F1200 X121.894 Y106.108 E36.20518
G1 X121.934 Y105.89 E36.2179
G1 X122.048 Y105.699 E36.23066
G1 X122.221 Y105.561 E36.24335
G1 X122.514 Y105.488 E36.26068
G1 X128.914 Y105.488 E36.62783
G1 X129.132 Y105.528 E36.64054
G1 X129.323 Y105.642 E36.6533
G1 X129.461 Y105.815 E36.666
G1 X129.534 Y106.108 E36.68332
G1 X129.534 Y113.308 E37.09636
G1 X129.494 Y113.526 E37.10908
G1 X129.38 Y113.717 E37.12184
G1 X129.207 Y113.855 E37.13453
G1 X128.914 Y113.928 E37.15185
G1 X122.514 Y113.928 E37.519
G1 X122.296 Y113.888 E37.53172
G1 X122.105 Y113.774 E37.54448
G1 X121.967 Y113.601 E37.55717
G1 X121.894 Y113.308 E37.5745
G0 F6000 X121.454 Y113.362
G1 F1200 X121.454 Y106.108 E37.99064
G1 X121.501 Y105.811 E38.00789
G1 X121.67 Y105.473 E38.02957
G1 X121.947 Y105.217 E38.0512
G1 X122.115 Y105.134 E38.06195
G1 X122.46 Y105.048 E38.08235
G1 X128.914 Y105.048 E38.4526
G1 X129.211 Y105.095 E38.46985
G1 X129.549 Y105.264 E38.49153
G1 X129.805 Y105.541 E38.51316
G1 X129.888 Y105.709 E38.52391
G1 X129.974 Y106.054 E38.54431
G1 X129.974 Y113.308 E38.96045
G1 X129.927 Y113.605 E38.9777
G1 X129.758 Y113.943 E38.99938
G1 X129.481 Y114.199 E39.02102
G1 X129.313 Y114.282 E39.03177
G1 X128.968 Y114.368 E39.05217
G1 X122.514 Y114.368 E39.42241
G1 X122.217 Y114.321 E39.43966
G1 X121.879 Y114.152 E39.46134
G1 X121.623 Y113.875 E39.48298
G1 X121.54 Y113.707 E39.49373
G1 X121.454 Y113.362 E39.51413
G1 F1800 E34.51413
G1 F300 Z0.72
G0 F6000 X122.115 Y114.734 Z0.72
G1 F300 Z0.32
G1 F1800 E39.51413
G1 F1200 X121.947 Y114.817 E39.52488
G1 X121.67 Y115.073 E39.54651
G1 X121.501 Y115.411 E39.56819
G1 X121.454 Y115.708 E39.58544
G1 X121.454 Y118.648 E39.7541
G1 X120.374 Y118.648 E39.81606
G1 X120.374 Y115.654 E39.98782
G1 X120.288 Y115.309 E40.00821
G1 X120.205 Y115.141 E40.01896
G1 X119.949 Y114.864 E40.0406
G1 X119.611 Y114.695 E40.06228
G1 X119.314 Y114.648 E40.07953
G1 X112.86 Y114.648 E40.44978
G1 X112.515 Y114.734 E40.47017
G1 X112.347 Y114.817 E40.48092
G1 X112.07 Y115.073 E40.50256
G1 X111.901 Y115.411 E40.52424
G1 X111.854 Y115.708 E40.54149
G1 X111.854 Y122.962 E40.95763
G1 X111.94 Y123.307 E40.97803
G1 X112.023 Y123.475 E40.98878
